humanity-icon-theme/Humanity/actions/24/system-log-out.svg

<?xml version="1.0" encoding="UTF-8" standalone="no"?>
<!-- Created with Inkscape (http://www.inkscape.org/) -->
<svg
   xmlns:svg="http://www.w3.org/2000/svg"
   xmlns="http://www.w3.org/2000/svg"
   xmlns:xlink="http://www.w3.org/1999/xlink"
   version="1.0"
   width="24"
   height="24"
   id="svg3299">
  <defs
     id="defs3301">
    <linearGradient
       x1="30.00001"
       y1="6.333993"
       x2="30.00001"
       y2="24.913183"
       id="linearGradient2912"
       xlink:href="#linearGradient3341"
       gradientUnits="userSpaceOnUse"
       gradientTransform="matrix(0.5277033,0,0,0.5357324,-1.3310981,-1.4043014)" />
    <linearGradient
       x1="22"
       y1="39"
       x2="17"
       y2="37.4375"
       id="linearGradient2910"
       xlink:href="#linearGradient5060"
       gradientUnits="userSpaceOnUse"
       gradientTransform="matrix(-0.75,0,0,0.4347826,34.15,2.9173914)" />
    <radialGradient
       cx="30"
       cy="33.1875"
       r="4.6875"
       fx="30"
       fy="33.1875"
       id="radialGradient2908"
       xlink:href="#linearGradient5060"
       gradientUnits="userSpaceOnUse"
       gradientTransform="matrix(0.8149192,-3.8844793e-7,1.136461e-7,0.2534027,-9.9475804,6.5902095)" />
    <linearGradient
       x1="22"
       y1="39"
       x2="17"
       y2="37.4375"
       id="linearGradient2906"
       xlink:href="#linearGradient5060"
       gradientUnits="userSpaceOnUse"
       gradientTransform="matrix(0.75,0,0,0.4347826,-5.1276295,2.9173914)" />
    <linearGradient
       x1="30"
       y1="5"
       x2="30"
       y2="44.678879"
       id="linearGradient2904"
       xlink:href="#linearGradient3785"
       gradientUnits="userSpaceOnUse"
       gradientTransform="matrix(0.5277033,0,0,0.5357324,-1.3310981,-1.4043014)" />
    <radialGradient
       cx="26.375898"
       cy="12.31301"
       r="8"
       fx="26.375898"
       fy="12.31301"
       id="radialGradient2902"
       xlink:href="#linearGradient6954"
       gradientUnits="userSpaceOnUse"
       gradientTransform="matrix(0.8655204,-7.102871e-2,6.760608e-2,0.849074,-11.038912,-4.204803)" />
    <linearGradient
       x1="29.996229"
       y1="21.440447"
       x2="29.996229"
       y2="43.531425"
       id="linearGradient2900"
       xlink:href="#linearGradient3341"
       gradientUnits="userSpaceOnUse"
       gradientTransform="matrix(0.5161324,0,0,0.5166711,-0.9839725,-0.491809)" />
    <linearGradient
       id="linearGradient3785">
      <stop
         id="stop3787"
         style="stop-color:#b8b8b8;stop-opacity:1"
         offset="0" />
      <stop
         id="stop3789"
         style="stop-color:#878787;stop-opacity:1"
         offset="1" />
    </linearGradient>
    <linearGradient
       x1="30"
       y1="25.084745"
       x2="30"
       y2="45"
       id="linearGradient2894"
       xlink:href="#linearGradient3785"
       gradientUnits="userSpaceOnUse"
       gradientTransform="matrix(0.5161324,0,0,0.5166711,-0.9839725,-0.491809)" />
    <linearGradient
       id="linearGradient6954">
      <stop
         id="stop6960"
         style="stop-color:#f5f5f5;stop-opacity:1"
         offset="0" />
      <stop
         id="stop6962"
         style="stop-color:#d2d2d2;stop-opacity:1"
         offset="1" />
    </linearGradient>
    <radialGradient
       cx="24.999998"
       cy="28.659998"
       r="16"
       fx="24.999998"
       fy="28.659998"
       id="radialGradient2890"
       xlink:href="#linearGradient6954"
       gradientUnits="userSpaceOnUse"
       gradientTransform="matrix(0.6774237,0,0,0.1928563,-5.0162555,9.9977318)" />
    <linearGradient
       id="linearGradient5060">
      <stop
         id="stop5062"
         style="stop-color:#000000;stop-opacity:1"
         offset="0" />
      <stop
         id="stop5064"
         style="stop-color:#000000;stop-opacity:0"
         offset="1" />
    </linearGradient>
    <radialGradient
       cx="32"
       cy="41.5"
       r="21"
       fx="32"
       fy="41.5"
       id="radialGradient2887"
       xlink:href="#linearGradient5060"
       gradientUnits="userSpaceOnUse"
       gradientTransform="matrix(0.452381,0,0,0.1428571,2.380949e-2,15.071429)" />
    <linearGradient
       id="linearGradient4176">
      <stop
         id="stop4178"
         style="stop-color:#cc7032;stop-opacity:1"
         offset="0" />
      <stop
         id="stop3223"
         style="stop-color:#bb2d13;stop-opacity:1"
         offset="0.73855066" />
      <stop
         id="stop4180"
         style="stop-color:#a87300;stop-opacity:0"
         offset="1" />
    </linearGradient>
    <linearGradient
       x1="52.712177"
       y1="45.089542"
       x2="47.960129"
       y2="25.534338"
       id="linearGradient3098"
       xlink:href="#linearGradient4176"
       gradientUnits="userSpaceOnUse"
       gradientTransform="matrix(0,-0.5241142,-0.5575148,0,32.735771,69.1272)" />
    <linearGradient
       id="linearGradient4168">
      <stop
         id="stop4170"
         style="stop-color:#ecb56c;stop-opacity:1"
         offset="0" />
      <stop
         id="stop4172"
         style="stop-color:#e86225;stop-opacity:1"
         offset="0.7426424" />
      <stop
         id="stop4174"
         style="stop-color:#b07c0b;stop-opacity:0"
         offset="1" />
    </linearGradient>
    <linearGradient
       x1="5.6373582"
       y1="25.809036"
       x2="64.197998"
       y2="25.809036"
       id="linearGradient3096"
       xlink:href="#linearGradient4168"
       gradientUnits="userSpaceOnUse"
       gradientTransform="matrix(0.2807027,0,0,0.2638858,0.4859986,41.434644)" />
    <linearGradient
       id="linearGradient3341">
      <stop
         id="stop3343"
         style="stop-color:#ffffff;stop-opacity:1"
         offset="0" />
      <stop
         id="stop3345"
         style="stop-color:#ffffff;stop-opacity:0"
         offset="1" />
    </linearGradient>
    <linearGradient
       x1="27.399923"
       y1="10.177515"
       x2="10.87553"
       y2="34.629131"
       id="linearGradient3100"
       xlink:href="#linearGradient3341"
       gradientUnits="userSpaceOnUse"
       gradientTransform="matrix(-0.2840733,0,0,0.2513962,14.357652,41.001558)" />
  </defs>
  <g
     id="layer1">
    <g
       transform="translate(-4,-1)"
       id="g3758">
      <path
         d="M 24,21 C 24,22.656854 19.746705,24 14.5,24 C 9.2532949,24 5,22.656854 5,21 C 5,19.343146 9.2532949,18 14.5,18 C 19.746705,18 24,19.343146 24,21 z"
         id="path3823"
         style="opacity:0.8;fill:url(#radialGradient2887);fill-opacity:1;stroke:none" />
      <path
         d="M 12.177403,10.099947 C 12.414933,11.2246 12.547519,12.07532 12.354824,13.199973 C 10.852521,14.44767 7.0103206,15.008323 7.0160793,16.299998 L 6.4999472,20.175034 C 6.4999472,21.459107 10.081692,22.500053 14.5,22.500053 C 18.918307,22.500053 22.500053,21.459107 22.500053,20.175034 L 21.983919,16.299998 C 21.977819,15.1945 18.112926,14.491652 16.629046,13.199973 C 16.502295,12.156125 16.603186,11.143799 16.822595,10.099947 L 12.177403,10.099947 L 12.177403,10.099947 z"
         id="path3766"
         style="fill:url(#radialGradient2890);fill-opacity:1;stroke:url(#linearGradient2894);stroke-width:0.99989432;stroke-miterlimit:4;stroke-dasharray:none;stroke-opacity:1" />
      <path
         d="M 13.21875,11.09375 C 13.30597,11.950461 13.55415,12.894757 13.17057,13.709607 C 12.528016,14.438072 11.575968,14.803433 10.70319,15.182322 C 9.3226847,15.510467 7.7137266,16 7.9252179,16.998373 C 7.7834779,18.061416 7.641739,19.124458 7.5,20.1875 C 7.8063993,20.348113 8.5809439,20.772404 9.125,20.875 C 11.645767,21.541947 14.29285,21.600367 16.879874,21.394516 C 18.391585,21.228304 19.968523,21.041851 21.3125,20.28125 C 21.647936,20.20763 21.419622,19.964839 21.427436,19.626335 C 21.295374,18.605057 21.163312,17.583778 21.03125,16.5625 C 20.443602,16.0598 19.639954,15.808981 18.924859,15.497923 C 17.842077,15.050624 16.673391,14.64492 15.837947,13.789929 C 15.44633,13.100371 15.676474,12.251186 15.730623,11.503439 C 15.990304,10.975089 15.507224,11.101536 15.177691,11.09375 C 14.52471,11.09375 13.87173,11.09375 13.21875,11.09375 z"
         id="path3742"
         style="fill:none;stroke:url(#linearGradient2900);stroke-width:0.99989432;stroke-miterlimit:4;stroke-opacity:1" />
      <path
         d="M 14.5,1.5422262 C 12.314182,1.5422262 10.542226,3.2212162 10.542226,5.2923534 C 10.559356,6.058841 10.623776,6.9693996 11.069927,9.0424804 C 11.333779,9.846079 13.68721,11.98901 13.708444,12.256875 C 14.220145,12.52474 15.027702,12.52474 15.555408,12.256875 C 15.555408,11.98901 17.666221,9.846079 17.930072,9.0424804 C 18.432118,6.8879308 18.430845,6.0959521 18.457774,5.2923534 C 18.457774,3.2212162 16.685818,1.5422262 14.5,1.5422262 L 14.5,1.5422262 z"
         id="path3764"
         style="fill:url(#radialGradient2902);fill-opacity:1;stroke:url(#linearGradient2904);stroke-width:1.08445191;stroke-miterlimit:4;stroke-dasharray:none;stroke-opacity:1" />
      <path
         d="M 10.62237,21.7 C 8.8506083,20.838176 9.6954668,18.924844 9.8723695,17.7 C 9.1223696,18.569566 9.5000001,21 8,21 C 9,21.355621 9.6845389,21.59817 10.62237,21.7 L 10.62237,21.7 z"
         id="path3848"
         style="opacity:0.5;fill:url(#linearGradient2906);fill-opacity:1;stroke:none" />
      <path
         d="M 12,13.35048 C 12.366027,14.309818 13.343418,15 14.5,15 C 15.656582,15 16.633972,14.309818 17,13.35048 L 12,13.35048 L 12,13.35048 z"
         id="path3833"
         style="opacity:0.3;fill:url(#radialGradient2908);fill-opacity:1;stroke:none" />
      <path
         d="M 18.4,21.7 C 20.171762,20.838176 19.326903,18.924844 19.150001,17.7 C 19.9,18.569566 19.52237,21 21.02237,21 C 20.02237,21.355621 19.337831,21.59817 18.4,21.7 z"
         id="path3720"
         style="opacity:0.5;fill:url(#linearGradient2910);fill-opacity:1;stroke:none" />
      <path
         d="M 14.5,2.53125 C 12.833384,2.53125 11.5487,3.7615673 11.53125,5.25 C 11.531389,5.25624 11.531105,5.274997 11.53125,5.28125 C 11.54772,5.9893529 11.61734,6.8085295 12.03125,8.75 C 12.02615,8.71333 12.12796,8.9541393 12.34375,9.21875 C 12.576183,9.5037735 12.910353,9.8270812 13.21875,10.15625 C 13.527147,10.485419 13.817597,10.825225 14.0625,11.09375 C 14.15685,11.197198 14.234456,11.280655 14.3125,11.375 C 14.479311,11.41024 14.727749,11.40712 14.9375,11.375 C 14.99932,11.29103 15.052251,11.215569 15.125,11.125 C 15.343248,10.853293 15.598896,10.549007 15.875,10.21875 C 16.151104,9.8884927 16.444207,9.5373559 16.65625,9.25 C 16.853812,8.9822684 16.963562,8.746856 16.96875,8.75 C 17.429451,6.7502172 17.442485,6.0804279 17.46875,5.28125 C 17.46875,5.271068 17.468869,5.260159 17.46875,5.25 C 17.4513,3.7615673 16.166616,2.53125 14.5,2.53125 z"
         id="path3730"
         style="fill:none;stroke:url(#linearGradient2912);stroke-width:1.08445191;stroke-miterlimit:4;stroke-dasharray:none;stroke-opacity:1" />
    </g>
    <path
       d="M 7.9999994,42 L 1.0000004,47.5 L 7.9999994,53 L 7.9999994,50 L 18,50 L 18,45 L 7.9999994,45 L 7.9999994,42 L 7.9999994,42 z"
       transform="matrix(-1,0,0,1,23.5,-29.5)"
       id="path3212"
       style="fill:url(#linearGradient3096);fill-opacity:1;fill-rule:nonzero;stroke:url(#linearGradient3098);stroke-width:0.99999994;stroke-linecap:round;stroke-linejoin:round;marker:none;stroke-miterlimit:4;stroke-dasharray:none;stroke-dashoffset:0;stroke-opacity:1;visibility:visible;display:inline;overflow:visible" />
    <path
       d="M 7,44.060147 L 2.5684203,47.50277 L 7,50.992324 L 7,49 L 16.688111,49 L 16.715523,46 L 7,46 L 7,44.060147 z"
       transform="matrix(-1,0,0,1,23.5,-29.5)"
       id="path3214"
       style="opacity:0.35400008;fill:none;stroke:url(#linearGradient3100);stroke-width:1;stroke-linecap:butt;stroke-linejoin:miter;marker:none;stroke-miterlimit:4;stroke-dasharray:none;stroke-dashoffset:0;stroke-opacity:1;visibility:visible;display:inline;overflow:visible" />
  </g>
</svg>

<?xml version="1.0" encoding="UTF-8" standalone="no"?>
<!-- Created with Inkscape (http://www.inkscape.org/) -->
<svg id="svg3299" xmlns="http://www.w3.org/2000/svg" height="24" width="24" version="1.0" xmlns:xlink="http://www.w3.org/1999/xlink">
 <defs id="defs3301">
  <linearGradient id="linearGradient2912" y2="24.913" xlink:href="#linearGradient3341" gradientUnits="userSpaceOnUse" x2="30" gradientTransform="matrix(.52770 0 0 .53573 -1.3311 -1.4043)" y1="6.334" x1="30"/>
  <linearGradient id="linearGradient2910" y2="37.438" xlink:href="#linearGradient5060" gradientUnits="userSpaceOnUse" x2="17" gradientTransform="matrix(-.75 0 0 .43478 34.15 2.9174)" y1="39" x1="22"/>
  <radialGradient id="radialGradient2908" xlink:href="#linearGradient5060" gradientUnits="userSpaceOnUse" cy="33.188" cx="30" gradientTransform="matrix(.81492 -3.8845e-7 1.1365e-7 .25340 -9.9476 6.5902)" r="4.6875"/>
  <linearGradient id="linearGradient2906" y2="37.438" xlink:href="#linearGradient5060" gradientUnits="userSpaceOnUse" x2="17" gradientTransform="matrix(.75 0 0 .43478 -5.1276 2.9174)" y1="39" x1="22"/>
  <linearGradient id="linearGradient2904" y2="44.679" xlink:href="#linearGradient3785" gradientUnits="userSpaceOnUse" x2="30" gradientTransform="matrix(.52770 0 0 .53573 -1.3311 -1.4043)" y1="5" x1="30"/>
  <radialGradient id="radialGradient2902" xlink:href="#linearGradient6954" gradientUnits="userSpaceOnUse" cy="12.313" cx="26.376" gradientTransform="matrix(.86552 -.071029 .067606 .84907 -11.039 -4.2048)" r="8"/>
  <linearGradient id="linearGradient2900" y2="43.531" xlink:href="#linearGradient3341" gradientUnits="userSpaceOnUse" x2="29.996" gradientTransform="matrix(.51613 0 0 .51667 -.98397 -.49181)" y1="21.44" x1="29.996"/>
  <linearGradient id="linearGradient3785">
   <stop id="stop3787" style="stop-color:#b8b8b8" offset="0"/>
   <stop id="stop3789" style="stop-color:#878787" offset="1"/>
  </linearGradient>
  <linearGradient id="linearGradient2894" y2="45" xlink:href="#linearGradient3785" gradientUnits="userSpaceOnUse" x2="30" gradientTransform="matrix(.51613 0 0 .51667 -.98397 -.49181)" y1="25.085" x1="30"/>
  <linearGradient id="linearGradient6954">
   <stop id="stop6960" style="stop-color:#f5f5f5" offset="0"/>
   <stop id="stop6962" style="stop-color:#d2d2d2" offset="1"/>
  </linearGradient>
  <radialGradient id="radialGradient2890" xlink:href="#linearGradient6954" gradientUnits="userSpaceOnUse" cy="28.66" cx="25" gradientTransform="matrix(.67742 0 0 .19286 -5.0163 9.9977)" r="16"/>
  <linearGradient id="linearGradient5060">
   <stop id="stop5062" offset="0"/>
   <stop id="stop5064" style="stop-opacity:0" offset="1"/>
  </linearGradient>
  <radialGradient id="radialGradient2887" xlink:href="#linearGradient5060" gradientUnits="userSpaceOnUse" cy="41.5" cx="32" gradientTransform="matrix(.45238 0 0 .14286 .023809 15.071)" r="21"/>
  <linearGradient id="linearGradient3098" y2="25.534" gradientUnits="userSpaceOnUse" x2="47.96" gradientTransform="matrix(0 -.52411 -.55751 0 32.736 69.127)" y1="45.09" x1="52.712">
   <stop id="stop4178" style="stop-color:#cc7032" offset="0"/>
   <stop id="stop3223" style="stop-color:#bb2d13" offset=".73855"/>
   <stop id="stop4180" style="stop-color:#a87300;stop-opacity:0" offset="1"/>
  </linearGradient>
  <linearGradient id="linearGradient3096" y2="25.809" gradientUnits="userSpaceOnUse" x2="64.198" gradientTransform="matrix(.28070 0 0 .26389 0.486 41.435)" y1="25.809" x1="5.6374">
   <stop id="stop4170" style="stop-color:#ecb56c" offset="0"/>
   <stop id="stop4172" style="stop-color:#e86225" offset=".74264"/>
   <stop id="stop4174" style="stop-color:#b07c0b;stop-opacity:0" offset="1"/>
  </linearGradient>
  <linearGradient id="linearGradient3341">
   <stop id="stop3343" style="stop-color:#fff" offset="0"/>
   <stop id="stop3345" style="stop-color:#fff;stop-opacity:0" offset="1"/>
  </linearGradient>
  <linearGradient id="linearGradient3100" y2="34.629" xlink:href="#linearGradient3341" gradientUnits="userSpaceOnUse" x2="10.876" gradientTransform="matrix(-.28407 0 0 .25140 14.358 41.002)" y1="10.178" x1="27.4"/>
 </defs>
 <g id="layer1">
  <g id="g3758" transform="translate(-4,-1)">
   <path id="path3823" style="opacity:.8;fill:url(#radialGradient2887)" d="m24 21c0 1.657-4.253 3-9.5 3-5.2467 0-9.5-1.343-9.5-3s4.2533-3 9.5-3c5.247 0 9.5 1.343 9.5 3z"/>
   <path id="path3766" style="stroke:url(#linearGradient2894);stroke-width:.99989;fill:url(#radialGradient2890)" d="m12.177 10.1c0.238 1.125 0.371 1.975 0.178 3.1-1.502 1.248-5.3447 1.808-5.3389 3.1l-0.5162 3.875c0 1.284 3.5821 2.325 8.0001 2.325s8-1.041 8-2.325l-0.516-3.875c-0.006-1.106-3.871-1.808-5.355-3.1-0.127-1.044-0.026-2.056 0.194-3.1h-4.646z"/>
   <path id="path3742" style="stroke:url(#linearGradient2900);stroke-width:.99989;fill:none" d="m13.219 11.094c0.087 0.856 0.335 1.801-0.048 2.616-0.643 0.728-1.595 1.093-2.468 1.472-1.3803 0.328-2.9893 0.818-2.7778 1.816-0.1417 1.063-0.2835 2.126-0.4252 3.19 0.3064 0.16 1.0809 0.584 1.625 0.687 2.521 0.667 5.168 0.725 7.755 0.52 1.512-0.167 3.089-0.353 4.432-1.114 0.336-0.073 0.108-0.316 0.115-0.655-0.132-1.021-0.264-2.042-0.396-3.064-0.587-0.502-1.391-0.753-2.106-1.064-1.083-0.447-2.252-0.853-3.087-1.708-0.392-0.69-0.162-1.539-0.107-2.287 0.259-0.528-0.224-0.401-0.553-0.409h-1.959z"/>
   <path id="path3764" style="stroke:url(#linearGradient2904);stroke-width:1.0845;fill:url(#radialGradient2902)" d="m14.5 1.5422c-2.186 0-3.958 1.679-3.958 3.7502 0.017 0.7664 0.082 1.677 0.528 3.7501 0.264 0.8036 2.617 2.9465 2.638 3.2145 0.512 0.268 1.32 0.268 1.847 0 0-0.268 2.111-2.4109 2.375-3.2145 0.502-2.1546 0.501-2.9465 0.528-3.7501 0-2.0712-1.772-3.7502-3.958-3.7502z"/>
   <path id="path3848" style="opacity:.5;fill:url(#linearGradient2906)" d="m10.622 21.7c-1.7714-0.862-0.9265-2.775-0.7496-4-0.75 0.87-0.3724 3.3-1.8724 3.3 1 0.356 1.6845 0.598 2.622 0.7z"/>
   <path id="path3833" style="opacity:.3;fill:url(#radialGradient2908)" d="m12 13.35c0.366 0.96 1.343 1.65 2.5 1.65s2.134-0.69 2.5-1.65h-5z"/>
   <path id="path3720" style="opacity:.5;fill:url(#linearGradient2910)" d="m18.4 21.7c1.772-0.862 0.927-2.775 0.75-4 0.75 0.87 0.372 3.3 1.872 3.3-1 0.356-1.684 0.598-2.622 0.7z"/>
   <path id="path3730" style="stroke:url(#linearGradient2912);stroke-width:1.0845;fill:none" d="m14.5 2.5312c-1.667 0-2.951 1.2304-2.969 2.7188v0.0312c0.017 0.7082 0.086 1.5273 0.5 3.4688-0.005-0.0367 0.097 0.2041 0.313 0.4688 0.232 0.285 0.566 0.6083 0.875 0.9372 0.308 0.329 0.599 0.669 0.843 0.938 0.095 0.103 0.172 0.187 0.25 0.281 0.167 0.035 0.416 0.032 0.626 0 0.061-0.084 0.114-0.159 0.187-0.25 0.218-0.272 0.474-0.576 0.75-0.906 0.276-0.3305 0.569-0.6816 0.781-0.969 0.198-0.2677 0.308-0.5031 0.313-0.5 0.46-1.9998 0.473-2.6696 0.5-3.4688v-0.0312c-0.018-1.4884-1.302-2.7188-2.969-2.7188z"/>
  </g>
  <path id="path3212" style="stroke-linejoin:round;stroke:url(#linearGradient3098);stroke-linecap:round;fill:url(#linearGradient3096)" d="m8 42l-7 5.5 7 5.5v-3h10v-5h-10v-3z" transform="matrix(-1,0,0,1,23.5,-29.5)"/>
  <path id="path3214" style="opacity:0.354;stroke:url(#linearGradient3100);fill:none" d="m7 44.06l-4.4316 3.443 4.4316 3.489v-1.992h9.688l0.028-3h-9.716v-1.94z" transform="matrix(-1,0,0,1,23.5,-29.5)"/>
 </g>
</svg>
